X: 29
T: String Quartet No. 7 in F Major, Op. 59, No. 1 mvt 4
C: Ludwig van Beethoven
%%abc-version 2.0
%%abcx-abcm2ps-target-version 5.9.1 (29 Sep 2008)
%%abc-creator hum2abc beta
%%abcx-conversion-date 2021/01/27 10:01:13
%%abc-edited-by Craig Stuart Sapp
%%abcx-initial-encoding-date 2004/09/09/
%%gracespace 0 6 6
%%humdrum-veritas 415104560
%%humdrum-veritas-data 2965046641
%%linebreak <none>
%%barnumbers 0
L: 1/16
M: 2/4
N: Derived from quartet07-4.krn
Q: "Allegro (Th\`eme russe)" 1/4=120
%%staves [1 2 3 4]
V: 1 clef=treble
V: 2 clef=treble
V: 3 clef=alto
V: 4 clef=bass
K: F
[V:1] c8- | 
[V:2] z8 | 
[V:3] z8 | 
[V:4] D,4C,2D,E, | 
[V:1] c8- | 
[V:2] z8 | 
[V:3] z8 | 
[V:4] .F,2.F,2 .G,2.G,2 | 
[V:1] c8- | 
[V:2] z8 | 
[V:3] z8 | 
[V:4] A,4C2.C.B, | 
[V:1] c8 | 
[V:2] z8 | 
[V:3] z8 | 
[V:4] A,4C3B, | 
[V:1] c4^c4 | 
[V:2] z8 | 
[V:3] z8 | 
[V:4] A,4G,2A,E, | 
[V:1] d4{/^c2d2}e4 | 
[V:2] z8 | 
[V:3] z8 | 
[V:4] .F,2.D,2 .^C,2.A,,2 | 
[V:1] {/d2e2} f3e/d/ ^c3=B/c/ | 
[V:2] z8 | 
[V:3] z8 | 
[V:4] .D,2.F,2 .E,2.A,2 | 
[V:1] d4z4 | 
[V:2] z4z .A.F.B | 
[V:3] z .F.E.A .F2 z2 | 
[V:4] D,4=C,4- | 
[V:1] d4c2de | 
[V:2] .B2.B2 z2 .B2 | 
[V:3] .G2.G2 z2 .G2 | 
[V:4] C,8- | 
[V:1] .f2.f2 .g2.g2 | 
[V:2] z2 A2 z2 G2 | 
[V:3] z2 F2 z2 C2 | 
[V:4] C,8- | 
[V:1] a4c'2.c'.b | 
[V:2] z2 F2 z2 G2 | 
[V:3] z2 A,2 z2 E2 | 
[V:4] C,8- | 
[V:1] a4c'3b | 
[V:2] z2 A2 z2 G2 | 
[V:3] z2 F2 z2 E2 | 
[V:4] C,8 | 
[V:1] a4g2ae | 
[V:2] z2 A2 z2 A2 | 
[V:3] z2 F2 z2 E2 | 
[V:4] C,4^C,4 | 
[V:1] .f2.d2 .^c2.A2 | 
[V:2] z2 A2 z2 A2 | 
[V:3] z2 F2 z2 G2 | 
[V:4] D,4E,4 | 
[V:1] .d2.f2 .e2.a2 | 
[V:2] z2 A2 z2 A2 | 
[V:3] z2 F2 z2 G2 | 
[V:4] F,3E,/D,/ ^C,3=B,,/A,,/ | 
[V:1] d4z4 | 
[V:2] f4e2fg | 
[V:3] D,4C,2D,E, | 
[V:4] B,,8 | 
[V:1] z4c'2d'e' | 
[V:2] .a2.a2 .b2.b2 | 
[V:3] .F,2.F,2 .G,2.G,2 | 
[V:4] A,,4G,,4 | 
[V:1] .f'2.f'2 .g'2.g'2 | 
[V:2] a2c4c2- | 
[V:3] A,4C2.C.B, | 
[V:4] F,,A,,A,,C, E,,G,,G,,C, | 
[V:1] a'4c''2.c''.b' | 
[V:2] c2c2 c'2.c'.b | 
[V:3] A,4E,2.E,.G, | 
[V:4] F,,A,,A,,C, C,,E,,G,,C, | 
[V:1] a'4z4 | 
[V:2] a2c4c2- | 
[V:3] F,4C3B, | 
[V:4] F,,A,,A,,C, E,,G,,G,,C, | 
[V:1] z4c''3b' | 
[V:2] c2c2 c'3b | 
[V:3] A,4E,3G, | 
[V:4] F,,A,,A,,C, C,,E,,.G,,.C, | 
[V:1] b'a'.a'.g' g'f'.f'.e' | 
[V:2] ba.f'.e' e'd'.d'.c' | 
[V:3] G,F,A,4C2- | 
[V:4] F,,2F,4A,2- | 
[V:1] e'd'.d'.^c' c'd'.d'.=c' | 
[V:2] c'b.b.a ab.b.a | 
[V:3] C2D2z4 | 
[V:4] A,2B,2z4 | 
[V:1] c'b.b.a ag.g.f | 
[V:2] ag.g.f fe.e.d | 
[V:3] z2B,4D2- | 
[V:4] z2G,4B,2- | 
[V:1] fe z2z4 | 
[V:2] dc.e.f ^fg.g.=f | 
[V:3] D2E.F ^FG.G.=F | 
[V:4] B,2C2z4 | 
[V:1] z4c'4- | 
[V:2] fe.e.d dc.c.=B | 
[V:3] FE.E.D DC.C.=B, | 
[V:4] z8 | 
[V:1] c'6ac' | 
[V:2] cBBf gBAf | 
[V:3] CB,B,F GB,A,F | 
[V:4] z2 D,2E,2F,2 | 
[V:1] c'6ac' | 
[V:2] cBBf gBAf | 
[V:3] CB,B,F GB,A,F | 
[V:4] z2 D,2E,2F,2 | 
[V:1] z4^f'g'=f'e' | 
[V:2] Gd z d Ec z c | 
[V:3] G,D z D E,C z C | 
[V:4] z2 B,,2 z2 C,2 | 
[V:1] d'c'bf' g'baf' | 
[V:2] z2 B2e2f2 | 
[V:3] z2 F2B2A2 | 
[V:4] z2 D2C2F2 | 
[V:1] c'bbf' g'baf' | 
[V:2] z2 B2 gBAf | 
[V:3] z2 F,2E,2A,2 | 
[V:4] z2 _D,,2C,,2F,,2 | 
[V:1] gd' z d' ec' z c' | 
[V:2] z2 d2 z2 G2 | 
[V:3] z2 G2 z2 E2 | 
[V:4] z2 B,2 z2 C2 | 
[V:1] fa z a Af z f | 
[V:2] z2 c2 z2 F2 | 
[V:3] z2 F2 z2 A,2 | 
[V:4] z2 A,2 z2 D,2 | 
[V:1] Gd z d Ec z c- | 
[V:2] z2 D2 z2 E2 | 
[V:3] z2 B,2 z2 G,2 | 
[V:4] z2 B,,2 z2 C,2 | 
[V:1] cCA,F GECG | 
[V:2] F2C2 C2C2 | 
[V:3] A,2A,2 B,2B,2 | 
[V:4] F,,4C,2D,E, | 
[V:1] AFCA BGEB | 
[V:2] C2C2 E2E2 | 
[V:3] A,2A,2 B,2B,2 | 
[V:4] .F,2.F,2 .G,2.G,2 | 
[V:1] cAFc eBGe | 
[V:2] F2F2 B2B2 | 
[V:3] C2C2 C2C2 | 
[V:4] A,2A,2 G,2G,2 | 
[V:1] fcAf gecg | 
[V:2] A2A2 c2c2 | 
[V:3] C2C2 E2E2 | 
[V:4] F,2F,2 C,2C,2 | 
[V:1] afca c'ge.c' | 
[V:2] c2c2 B2B2 | 
[V:3] F2F2 G2G2 | 
[V:4] A,,4C,,2D,,E,, | 
[V:1] .c'afc' e'=b^g.e' | 
[V:2] A2A2 ^G2A=B | 
[V:3] F2F2 E,2^F,^G, | 
[V:4] F,,2F,,2z4 | 
[V:1] .e'c'a.e' .e'=b_a.e' | 
[V:2] c2c2 [d2e2][d2e2] | 
[V:3] A,2A,2 ^G2A=B | 
[V:4] z4E,,2^F,,^G,, | 
[V:1] .e'c'a.e' .f'd'a.f' | 
[V:2] [c2e2][c2e2] [d2f2][d2f2] | 
[V:3] .c2.c2 D,2E,=F, | 
[V:4] .A,,2.A,,2 D,,2E,,^F,, | 
[V:1] f'd'd'f' f'd'd'f' | 
[V:2] z8 | 
[V:3] G,4-G,2=B,D | 
[V:4] =G,,2=B,,D,G,4 | 
[V:1] f'd'd'f' f'd'gg' | 
[V:2] G2=B2 d2f2 | 
[V:3] G4z4 | 
[V:4] z8 | 
[V:1] g'ggg' g'ggg' | 
[V:2] e4=B4 | 
[V:3] z2 E2 z2 F2 | 
[V:4] z2 C2 z2 D2 | 
[V:1] g'ggg' g'ggg' | 
[V:2] c4_d4 | 
[V:3] z2 G2 z2 G2 | 
[V:4] z2 E2 z2 E2 | 
[V:1] g'ggg' g'ggg' | 
[V:2] d4e4 | 
[V:3] z2 =B2 z2 _d2 | 
[V:4] z2 F2 z2 E2 | 
[V:1] g'ggg' g'ggg' | 
[V:2] f8 | 
[V:3] z2 d2 z2 d2 | 
[V:4] z2 .D2 z2 .C2 | 
[V:1] g'ggg' g'ggg' | 
[V:2] f4g4 | 
[V:3] z2 d2 z2 e2 | 
[V:4] z2 =B,2 z2 A,2 | 
[V:1] g'ggg' g'ggg' | 
[V:2] a4=B4 | 
[V:3] z2 f2 z2 D2 | 
[V:4] z2 G,2 z2 F,2 | 
[V:1] g'ggg' g'ggg' | 
[V:2] c4d4 | 
[V:3] z2 E2 z2 F2 | 
[V:4] z2 E,2 z2 D,2 | 
[V:1] g'ggg' g'ggg' | 
[V:2] e4f4 | 
[V:3] z2 G2 z2 =B2 | 
[V:4] z2 C,2 z2 G,,2 | 
[V:1] g'ggg' f'ggf' | 
[V:2] _e2G4G2- | 
[V:3] c2G,4G,2- | 
[V:4] _E,4=B,,4 | 
[V:1] _e'4=b4 | 
[V:2] G2G4G2- | 
[V:3] G,2G,4G,2- | 
[V:4] C,4D,4 | 
[V:1] c'4_d'4 | 
[V:2] G2G4G2- | 
[V:3] G,2G,4G,2- | 
[V:4] _E,4=E,4 | 
[V:1] d'4_e'4 | 
[V:2] G2G4G2- | 
[V:3] G,2G,4G,2- | 
[V:4] F,8 | 
[V:1] f'8 | 
[V:2] G2G4G2- | 
[V:3] G,2G,4G,2- | 
[V:4] F,4G,4 | 
[V:1] f'4g'4 | 
[V:2] G2G4G2- | 
[V:3] G,2G,4G,2- | 
[V:4] _A,4=B,,4 | 
[V:1] _a'4=b4 | 
[V:2] G2G4G2- | 
[V:3] G,2G,4G,2- | 
[V:4] C,4D,4 | 
[V:1] c'4d'4 | 
[V:2] G2G4G2- | 
[V:3] G,2G,4G,2- | 
[V:4] _E,4D,4 | 
[V:1] _e'8- | 
[V:2] G2G4_d2 | 
[V:3] G,2G,4G,2 | 
[V:4] C,4B,,4 | 
[V:1] e'4=b2c'd' | 
[V:2] c8 | 
[V:3] _A,8- | 
[V:4] _A,,8- | 
[V:1] ._e'2.e'2 .d'2.d'2 | 
[V:2] ^F8- | 
[V:3] A,4=B,2CD | 
[V:4] A,,8- | 
[V:1] .c'2.c'2 =b2c'd' | 
[V:2] F8 | 
[V:3] ._E2.E2 .D2.D2 | 
[V:4] A,,8 | 
[V:1] e'8 | 
[V:2] G8 | 
[V:3] C8 | 
[V:4] .G,,.A,,.=B,,.C, .D,.E,.F,.G, | 
[V:1] [F8A8] | 
[V:2] C8 | 
[V:3] .F,.G,.A,.=B, .C.D.E.F | 
[V:4] F,8 | 
[V:1] .=B.c.d.e .f.g.a.=b | 
[V:2] .f.e.d.c .=B.A.G.F | 
[V:3] [F,8G,8] | 
[V:4] D,8 | 
[V:1] c'd'e'f' g'a'=b'c'' | 
[V:2] EFGA =Bcde | 
[V:3] EDC=B, A,G,F,E, | 
[V:4] C,=B,,A,,G,, F,,E,,D,,C,, | 
[V:1] a'2 z2 [F2c2a2] z2 | 
[V:2] f2 z2 [F2A2] z2 | 
[V:3] C2 z2 [C2A2] z2 | 
[V:4] F,,2 z2 F,2 z2 | 
[V:1] [E2c2g2] z2 [G,2D2=B2] z2 | 
[V:2] [E2c2e2] z2 [G,2F2] z2 | 
[V:3] [C2G2] z2 G,2 z2 | 
[V:4] G,2 z2 G,,2 z2 | 
[V:1] z8 | 
[V:2] z8 | 
[V:3] z8 | 
[V:4] z4=B,,2C,D, | 
[V:1] z4^f2ga | 
[V:2] z4A2=Bc | 
[V:3] z4A,2G,^F, | 
[V:4] _E,2E,2 E,2E,2 | 
[V:1] ggg2- ggg2- | 
[V:2] cee2- eee2- | 
[V:3] G,2>.C2 C3.E | 
[V:4] E,2>.G,2 G,3.C | 
[V:1] ggg2- gggg | 
[V:2] eee2- eeee | 
[V:3] E2>G2 GE.C.G, | 
[V:4] C2>E2 EC.G,.E, | 
[V:1] ggg2- ggg2- | 
[V:2] fff2- fff2- | 
[V:3] F,2>.=B,2 B,3.D | 
[V:4] D,2>.F,2 F,3.=B, | 
[V:1] ggg2- gggg | 
[V:2] fff2- ffff | 
[V:3] D2>F2 FD=B,F, | 
[V:4] =B,2>D2 DB,F,D, | 
[V:1] g2>.c'2 c'3.e' | 
[V:2] e2>.g2 g3.c' | 
[V:3] G,EE2- EEE2- | 
[V:4] C,CC2- CCC2- | 
[V:1] e'2>.g'2 g'e'.c'.g | 
[V:2] c'2>.e'2 e'c'.g.e | 
[V:3] EEE2- EEEE | 
[V:4] CCC2- CCCC | 
[V:1] f2>.=b2 b3.d' | 
[V:2] d2>.f2 f3.=b | 
[V:3] FDD2- DDD2- | 
[V:4] DG,G,2- G,G,G,2- | 
[V:1] d'2>.f'2 f'd'.=b.f | 
[V:2] =b2>.d'2 d'b.f.d | 
[V:3] DDD2- DDDD | 
[V:4] G,G,G,2- G,G,G,=B, | 
[V:1] e2>.d2 e3.e | 
[V:2] c2>.=B2 c3.^c | 
[V:3] EEF2- FEG2- | 
[V:4] CCG,2- G,CA,2- | 
[V:1] f2>.e2 f3.d | 
[V:2] d2>.^c2 d3.=B | 
[V:3] GFG2- GFF2 | 
[V:4] A,DA,2- A,DG,2 | 
[V:1] e2>.=b2 c'3.^c' | 
[V:2] c2>.d2 e3.e | 
[V:3] EE, F,2- F,E,G,2- | 
[V:4] CC, G,,2- .G,,C,A,,2- | 
[V:1] d'2>^c'2 d'3=b | 
[V:2] f2>e2 f3d | 
[V:3] G,F,G,2- G,F,F2- | 
[V:4] A,,D,A,,2- A,,D,G,,2- | 
[V:1] e'2>g'2 =c'3e' | 
[V:2] e2>g2 c3e | 
[V:3] FED2- DC=B,2- | 
[V:4] G,,C,=B,,2- B,,A,,G,,2- | 
[V:1] a2>d'2 c'3=b | 
[V:2] A2>d2 c3=B | 
[V:3] B,A,F,2- F,G,G,2- | 
[V:4] G,,F,,D,,2- D,,G,,G,,2- | 
[V:1] .e'2<g'2 .c'e'3 | 
[V:2] .e2<g2 .ce3 | 
[V:3] G,E2D- DC2=B,- | 
[V:4] G,,C,2=B,,- B,,A,,2G,,- | 
[V:1] .a2<d'2 .c'=b3 | 
[V:2] .A2<d2 .c=B3 | 
[V:3] B,A,2F,- F,G,2G, | 
[V:4] G,,F,,2D,,- D,,G,,2G,, | 
[V:1] .c'CDE FGA=B | 
[V:2] c2 z2 z G,A,=B, | 
[V:3] [C,C] C,D,E, F,G,A,=B, | 
[V:4] C,, C,,D,,E,, F,,G,,A,,=B,, | 
[V:1] cdef ga=bc' | 
[V:2] CDEF GA=Bc | 
[V:3] CDEF GA,=B,C | 
[V:4] C,D,E,F, G,A,=B,C | 
[V:1] d'e'f'.g' .a'2.=b'2 | 
[V:2] def.g .a2.[d2=b2] | 
[V:3] DEF.G .A2.[G,2F2] | 
[V:4] DE,F,.E, .F,2.G,2 | 
[V:1] c''g'a'f' g'e'f'd' | 
[V:2] [ec']e'f'd' e'c'd'=b | 
[V:3] [G,E]E,D,F, E,E,D,F, | 
[V:4] C,C,=B,,D, C,C,B,,D, | 
[V:1] e'c'd'=b c'gaf | 
[V:2] c'efd eefd | 
[V:3] E,G,F,_A, G,C=B,D | 
[V:4] C,E,D,F, E,E,D,F, | 
[V:1] gefd ecd=B | 
[V:2] ecd=B cefd | 
[V:3] CEDF EEDF | 
[V:4] E,G,F,_A, G,C=B,D | 
[V:1] c=BdB cBdB | 
[V:2] edfd edfd | 
[V:3] EGF_A GGFA | 
[V:4] CEDF EEDF | 
[V:1] c=BdB cBdB | 
[V:2] eF_AF GFAF | 
[V:3] GDFD EDFD | 
[V:4] ECCC CCCC | 
[V:1] c=BdB cBdB | 
[V:2] GF_AF GFAF | 
[V:3] EDFD EDFD | 
[V:4] CCCC CCCC | 
[V:1] c8- | 
[V:2] G2 z2z4 | 
[V:3] E2 z2z4 | 
[V:4] C2 z2z4 | 
[V:1] c8 :|]  
[V:2] z8 :|]  
[V:3] z8 :|]  
[V:4] z8 :|]  
[V:1] c8- | 
[V:2] z8 | 
[V:3] ^F,4E,2F,G, | 
[V:4] ^F,,4E,,2F,,G,, | 
[V:1] c8- | 
[V:2] z4E2^FG | 
[V:3] .A,2.A,2 .G,2.G,2 | 
[V:4] .A,,2.A,,2 .G,,2.G,,2 | 
[V:1] c8- | 
[V:2] .A2.A2 .G2.G2 | 
[V:3] ^F,2F,2 G,2A,B, | 
[V:4] ^F,,2F,,2 G,,2A,,B,, | 
[V:1] c8- | 
[V:2] .^F2.F2 G2AB | 
[V:3] C2C2 B,2B,2 | 
[V:4] C,2C,2 B,,2B,,2 | 
[V:1] c8 | 
[V:2] c2c2 B2AG | 
[V:3] A,2A,2 B,2CD | 
[V:4] A,,2A,,2 B,,2C,D, | 
[V:1] c4{/=B2c2} d2e^f | 
[V:2] ^F2GA D2EF | 
[V:3] _E2D2 C2B,A, | 
[V:4] _E,2D,2 C,2B,,A,, | 
[V:1] g4d'2d'c' | 
[V:2] G4z4 | 
[V:3] G,2D,4D,2- | 
[V:4] G,,B,,B,,D, ^F,,A,,A,,D, | 
[V:1] b4z4 | 
[V:2] z4d2d.c | 
[V:3] D,2D4D2- | 
[V:4] G,,B,,B,,D, ^F,,A,,A,,D, | 
[V:1] z2 z d2< d'2c' | 
[V:2] B4z4 | 
[V:3] D2D,4D,2- | 
[V:4] G,,B,,B,,D, ^F,,A,,A,,D, | 
[V:1] b4z4 | 
[V:2] z2 z D2<d2c | 
[V:3] D,2D4D2- | 
[V:4] G,,B,,B,,D, ^F,,A,,A,,D, | 
[V:1] z4z2 .g.^f | 
[V:2] cB.B.A AG.D._E | 
[V:3] D2.G,.A, A,B,.B,.C | 
[V:4] G,,4z4 | 
[V:1] ^fg.g.=f f_e.e.d | 
[V:2] _ED.D.D DE.E.=F | 
[V:3] CB,.B,.=B, B,C.C.D | 
[V:4] z8 | 
[V:1] dc.c.=B Bc z2 | 
[V:2] FG.G._A AG z2 | 
[V:3] D_E.E.F FE z2 | 
[V:4] z4z2 ._E,._D, | 
[V:1] z4z2 ._e'._d' | 
[V:2] z8 | 
[V:3] z8 | 
[V:4] _D,C,.C,.B,, B,,_A,,.A,,.G,, | 
[V:1] _d'c'.c'.b b_a.a.g | 
[V:2] _Acc_e GBBe | 
[V:3] _E,8- | 
[V:4] _A,,4._E,2.E,._D, | 
[V:1] _a4_e'2.e'._d' | 
[V:2] _Acc_e B_dde | 
[V:3] E,8- | 
[V:4] C,4G,,4 | 
[V:1] c'4g4 | 
[V:2] _Acc_e GBBe | 
[V:3] E,8- | 
[V:4] _A,,2>_E,,2 _E,3_D, | 
[V:1] _a2>_e2 _e'3_d' | 
[V:2] _Acc_e B_dde | 
[V:3] E,8- | 
[V:4] C,4G,,4 | 
[V:1] _d'c'.c'.b b_a.a._g | 
[V:2] c4z4 | 
[V:3] E,2_E4._E,._D, | 
[V:4] _A,,_E,.E,._D, D,C,.C,.B,, | 
[V:1] _gf.f.e ef.f'._e' | 
[V:2] z2 .c.B BA z2 | 
[V:3] _D,C,.A,.B, A,B, F,2- | 
[V:4] B,,A,,.A,,._G,, G,,F,,.A,,.C, | 
[V:1] _e'_d'.d'.c' c'b.b._a | 
[V:2] z8 | 
[V:3] F,2F4.F,._E, | 
[V:4] C,B,,.B,,._E, E,_D,.D,.C, | 
[V:1] _ag.g.^f fg.g'.f' | 
[V:2] z2 .d.c c=B z2 | 
[V:3] _E,D,.=B,.C B,CG,2- | 
[V:4] C,=B,,.B,,._A,, A,,G,,.B,,.D, | 
[V:1] f'_e'.e'.d' d'_d'.d'.b | 
[V:2] z4z2 .g.f | 
[V:3] G,2G4.E.F | 
[V:4] D,C,.C,.F, F,=E,.E,.=D, | 
[V:1] ba.a.g gf.f.e | 
[V:2] e2 .e.^c cd.d.c | 
[V:3] G2 .^C.A AA.A.G | 
[V:4] D,^C,.C,.A,, A,,D,.D,,.E,, | 
[V:1] ed.d.c cB.B.A | 
[V:2] ^cA.A.A AG.G.F | 
[V:3] GF.F._E ED.D.D | 
[V:4] E,,F,,.F,,.^F,, F,,G,,.G,,.A,, | 
[V:1] A^G.G.A AG.G.A | 
[V:2] FEEE E2EE | 
[V:3] D2.D.^C CD.D.C | 
[V:4] A,,B,,.B,,.A,, A,,B,,.B,,.A,, | 
[V:1] A^G.G.A AG.G.A | 
[V:2] E2EE E2EE | 
[V:3] ^CD.D.C CD.D.C | 
[V:4] A,,B,,.B,,.A,, A,,B,,.B,,.A,, | 
[V:1] ^GA.A.G GA.A.G | 
[V:2] D^C.C.D DC.C.D | 
[V:3] D,E,.E,.D, D,E,.E,.D, | 
[V:4] B,,A,,.A,,.B,, B,,A,,.A,,.B,, | 
[V:1] ^GA.A.G GA.A.G | 
[V:2] D^C.C.D DC.C.D | 
[V:3] D,E,.E,.D, D,E,.E,.D, | 
[V:4] B,,A,,.A,,.B,, B,,A,,.A,,.B,, | 
[V:1] A8- | 
[V:2] ^C8- | 
[V:3] E,8- | 
[V:4] A,,^G,,.G,,.A,, A,,G,,.G,,.A,, | 
[V:1] A8- | 
[V:2] C8- | 
[V:3] E,8- | 
[V:4] A,,^G,,.G,,.A,, A,,G,,.G,,.A,, | 
[V:1] A8- | 
[V:2] C4.^C2.C.E | 
[V:3] E,4.A,2.A,.G, | 
[V:4] A,,^G,,.G,,.A,, A,,G,,.G,,.A,, | 
[V:1] A4.a2.a.g | 
[V:2] D4.A2.A.G | 
[V:3] F,4.^C,2.C,.E, | 
[V:4] A,,^G,,.G,,.A,, A,,G,,.G,,.A,, | 
[V:1] f4z4 | 
[V:2] F2>D2 ^C3E | 
[V:3] D,2>F,2 A,3G, | 
[V:4] A,,^G,,.G,,.A,, A,,G,,.G,,.A,, | 
[V:1] z2 z f2< a2g | 
[V:2] D2>F2 A3G | 
[V:3] F,2>D,2 ^C,3E, | 
[V:4] A,,^G,,.G,,.A,, A,,G,,.G,,.A,, | 
[V:1] f4z4 | 
[V:2] F4D2.D.F | 
[V:3] D,4B,2.B,._A, | 
[V:4] B,,A,,.B,,.B,, B,,A,,.B,,.B,, | 
[V:1] z4b2.b._a | 
[V:2] _E4B2.B._A | 
[V:3] G,4D,2.D,.F, | 
[V:4] B,,A,,.B,,.B,, B,,A,,.B,,.B,, | 
[V:1] g4z4 | 
[V:2] G2>_E2 D3F | 
[V:3] _E,2>G,2 B,3_A, | 
[V:4] B,,A,,.B,,.B,, B,,A,,.B,,.B,, | 
[V:1] z2 z g2<b2_a | 
[V:2] _E2>G2 B3_A | 
[V:3] G,2>_E,2 D,3F, | 
[V:4] B,,A,,.B,,.B,, B,,A,,.A,,.=B,, | 
[V:1] g2>g2 c'3b | 
[V:2] G2>G2 c3B | 
[V:3] E,2>E,2 E,3G, | 
[V:4] C,=B,,.B,,.C, C,B,,.B,,.C, | 
[V:1] c'2>b2 c'bc'b | 
[V:2] c2>B2 cBcB | 
[V:3] G,2>C2 CEEG | 
[V:4] C,=B,,.B,,.C, C,C,C,C, | 
[V:1] a2>.^c'2 c'3.e' | 
[V:2] A2>.e2 e3.^c' | 
[V:3] .G.GG2- GGG2- | 
[V:4] .^C,.A,A,2- A,A,A,2- | 
[V:1] e'2>.g'2 g'e'.^c'.g | 
[V:2] ^c'2>.e'2 e'c'.g.e | 
[V:3] G^CC2- CCCC | 
[V:4] A,A,A,2- A,A,A,A, | 
[V:1] f2>a2 a3d' | 
[V:2] d2>f2 f3a | 
[V:3] FFF2- FFF2- | 
[V:4] D,DD2- DDD2- | 
[V:1] d'2>f'2 f'3a' | 
[V:2] a2>d'2 d'3a | 
[V:3] FFF2- FFFF | 
[V:4] DDD2- DDDD | 
[V:1] b'2>_e'2 e'3g' | 
[V:2] b2>_e2 e3g | 
[V:3] GB,B,2- B,B,B,2- | 
[V:4] G,G,,G,,2- G,,G,,G,,2- | 
[V:1] g'2>^c'2 c'3a' | 
[V:2] g2>^c2 c3c | 
[V:3] B,G,G,2- G,G,G,G, | 
[V:4] G,,A,,A,,2- A,,E,E,E, | 
[V:1] a'a'a'2- a'a'a'2- | 
[V:2] ^cgg2- ggg2- | 
[V:3] G,2>^C2 C3E | 
[V:4] E,2>G,2 G,3^C | 
[V:1] a'a'a'2- a'a'a'a' | 
[V:2] ggg2- ggg^c | 
[V:3] E2>G2 GE.^C.G, | 
[V:4] ^C2>E2 GE.A,.E, | 
[V:1] a'a'a'2- a'a'a'2- | 
[V:2] dff2- fff2- | 
[V:3] F,2>.A,2 A,3.D | 
[V:4] D,2>.F,2 F,3.A, | 
[V:1] a'a'a'2- a'a'a'2- | 
[V:2] fff2- fff2- | 
[V:3] D2>.F2 F3.A | 
[V:4] A,2>.D2 DA,.F,.D, | 
[V:1] a'g'g'2- g'g'g'2- | 
[V:2] fee2- eee2- | 
[V:3] B2>E2 E3G | 
[V:4] G,2>G,2 G,3G, | 
[V:1] g'g'g'2- g'g'g'2- | 
[V:2] eee2- eee2- | 
[V:3] G2>^C2 C3E | 
[V:4] A,2>A,,2 A,,3A,, | 
[V:1] g'f'f'2- f'f'f'2- | 
[V:2] edd2- ddd2- | 
[V:3] F2>A2 D3F | 
[V:4] D,2>C,2 B,,3A,, | 
[V:1] f'g'g'2- g'g'g'2 | 
[V:2] d_eb2- baa2 | 
[V:3] B,2>_E2 D3^C | 
[V:4] G,,2>G,,2 A,,3A,, | 
[V:1] f'[e'2f'2]f'- f'f'2f' | 
[V:2] ad'2d'- d'd'2d' | 
[V:3] .F2<A2 DF3 | 
[V:4] .D,2<C,2 B,,A,,3 | 
[V:1] g'g'2g'- g'g'2g' | 
[V:2] _e'b2b- ba2a | 
[V:3] B,2<_E2 D^C3 | 
[V:4] G,,2<G,,2 A,,A,,3 | 
[V:1] f'f'2f' f'a'b'g' | 
[V:2] a[d2d'2][dd']- [dd']abg | 
[V:3] dABG AFGE | 
[V:4] DA,B,G, A,F,G,E, | 
[V:1] a'f'g'e' f'd'e'^c' | 
[V:2] afge fde^c | 
[V:3] FDE^C DD,^C,E, | 
[V:4] F,D,E,^C, D,D,,^C,,E,, | 
[V:1] d'abg afge | 
[V:2] dABG AABG | 
[V:3] D,F,E,G, F,F,E,G, | 
[V:4] D,,F,,E,,G,, F,,D,^C,E, | 
[V:1] fde^c dcec | 
[V:2] AFGE FEGE | 
[V:3] F,A,G,B, A,G,B,G, | 
[V:4] D,F,E,G, F,D,D,D, | 
[V:1] d^CEC DCEC | 
[V:2] FB,G,B, A,B,G,B, | 
[V:3] A,G,E,G, F,G,E,G, | 
[V:4] D,D,D,D, D,D,D,D, | 
[V:1] D^CEC DCEC | 
[V:2] A,B,G,B, A,B,G,B, | 
[V:3] F,G,E,G, F,G,E,G, | 
[V:4] D,D,D,D, D,D,,D,,D,, | 
[V:1] D8- | 
[V:2] A,8- | 
[V:3] F,8- | 
[V:4] D,,^C,,E,,C,, D,,C,,E,,C,, | 
[V:1] D8 | 
[V:2] A,8 | 
[V:3] F,8 | 
[V:4] D,,^C,,E,,C,, D,,C,,E,,C,, | 
[V:1] F2>.G2 F3.E | 
[V:2] D2>.E2 D3.^C | 
[V:3] .D.A,A,2- A,.A,A,2- | 
[V:4] D,,2>.^C,2 D,3.A,, | 
[V:1] F2>.G2 F3.E | 
[V:2] D2>.E2 D3.^C | 
[V:3] A,A,A,2- A,.A,A,2- | 
[V:4] D,2>.^C,2 D,3.A,, | 
[V:1] F4d2d2- | 
[V:2] D4F2F2 | 
[V:3] A,2=B,^C D2D2 | 
[V:4] D,2 z2z4 | 
[V:1] d2^c2d4 | 
[V:2] G2G2 _A2G2 | 
[V:3] E2E2F4 | 
[V:4] z4{/=C,} =B,,2A,,G,, | 
[V:1] _E2>.F2 E3.D | 
[V:2] C2>.D2 C3.=B, | 
[V:3] C.G,G,2- G,.G,G,2- | 
[V:4] C,2>.=B,,2 C,3.G,, | 
[V:1] _E2>.F2 E3.D | 
[V:2] C2>.D2 C3.=B, | 
[V:3] G,.G,G,2- G,.G,G,2- | 
[V:4] C,2>.=B,,2 C,3.G,, | 
[V:1] _E4c2c2- | 
[V:2] C4_E2E2 | 
[V:3] G,2A,=B, C2C2 | 
[V:4] C,4z4 | 
[V:1] c2=B2c4 | 
[V:2] F2F2 _G2F2 | 
[V:3] D2D2_E4 | 
[V:4] z4A,,2G,,F,, | 
[V:1] FFF2- FFF2- | 
[V:2] D2>_E2 D3C | 
[V:3] B,2>C2 B,3A, | 
[V:4] B,,2>A,,2 B,,3F,, | 
[V:1] FFF2- FFF2- | 
[V:2] D2>_E2 D3^C | 
[V:3] B,2>C2 B,3A, | 
[V:4] B,,2>A,,2 B,,3F,, | 
[V:1] FFF2- FFF2- | 
[V:2] D2>^C2 D3C | 
[V:3] B,2>A,2 B,3A, | 
[V:4] B,,2>F,,2 B,,3F,, | 
[V:1] FFF2- FFF2 | 
[V:2] D2>^C2 D3C | 
[V:3] B,2>A,2 B,3A, | 
[V:4] B,,2>F,,2 B,,3F,, | 
[V:1] F8- | 
[V:2] D4=C2D_E | 
[V:3] B,4A,2B,C | 
[V:4] B,,8- | 
[V:1] F4A2Bc | 
[V:2] F4_G2F_E | 
[V:3] D4_E2DC | 
[V:4] B,,8- | 
[V:1] d4c2d_e | 
[V:2] [D4B4]A2Bc | 
[V:3] B,4_G,2F,_E, | 
[V:4] B,,4_E,2D,C, | 
[V:1] .f2.f2 .g2.g2 | 
[V:2] .d2.d2 .e2.e2 | 
[V:3] .D,2.D2 .C2.C2 | 
[V:4] B,,6A,,G,, | 
[V:1] a4.c'2.c'.b | 
[V:2] .f2.f2 .g2.g2 | 
[V:3] C2C2 C2C2 | 
[V:4] F,,2E,,D,, C,,2D,,E,, | 
[V:1] a4c'3b | 
[V:2] f2f2 e2e2 | 
[V:3] C2C2 C2C2 | 
[V:4] F,,2E,,F,, G,,2F,,G,, | 
[V:1] a4g2ae | 
[V:2] f2f2 e2e2 | 
[V:3] C2A2 A2A2 | 
[V:4] A,,2G,,A,, =B,,2_D,A,, | 
[V:1] .f2.d2 .^c2.A2 | 
[V:2] d2 A2A2A2 | 
[V:3] A2 F2E2E2 | 
[V:4] D,2E,F, G,2A,G, | 
[V:1] .d2.f2 .e2.a2 | 
[V:2] A2d2 d2^c2 | 
[V:3] F2A2 B2G2 | 
[V:4] F,2E,D, G,2A,2 | 
[V:1] [D8d8] | 
[V:2] z8 | 
[V:3] z8 | 
[V:4] B,8 | 
[V:1] f4e2fg | 
[V:2] d4=c2de | 
[V:3] D4C2DE | 
[V:4] B,D.B,.D B,C.B,.C | 
[V:1] a2ab c'2d'e' | 
[V:2] f2f2 g2g2 | 
[V:3] F2F2 G2G2 | 
[V:4] A,2G,F, E,D,C,B,, | 
[V:1] .f'2.f'2 .g'2.g'2 | 
[V:2] a4c'2c'b | 
[V:3] A4c2cB | 
[V:4] A,,2G,,F,, E,,D,,E,,C,, | 
[V:1] a'4c''2.c''.b' | 
[V:2] a4c2c2 | 
[V:3] A4G2G2 | 
[V:4] F,,A,,A,,C, E,,G,,G,,C, | 
[V:1] a'4z4 | 
[V:2] c2>a2 c'3b | 
[V:3] A2>A2 c3B | 
[V:4] F,,A,,A,,C, C,,E,,E,,G,, | 
[V:1] z2 z a'2<c''2b' | 
[V:2] a2>c'2 c'3c' | 
[V:3] A2>A2 G3G | 
[V:4] F,,A,,A,,C, E,,G,,G,,C, | 
[V:1] b'a'.a'.g' g'f'.f'.e' | 
[V:2] c'f'.f'.e' e'd'.d'.c' | 
[V:3] A2F4F,2- | 
[V:4] F,,A,,A,,C, A,,C,C,F, | 
[V:1] e'd'.d'.^c' c'd'.d'.=c' | 
[V:2] c'bba ab3 | 
[V:3] F,4z2 .B.A | 
[V:4] B,,D,D,F,z4 | 
[V:1] c'b.b.a ag.g.f | 
[V:2] z8 | 
[V:3] AG.G.F FE.E.D | 
[V:4] G,,B,,B,,D, G,,=B,,B,,D, | 
[V:1] fe z2z4 | 
[V:2] z2 .e.f ^fg.g.=f | 
[V:3] DC.E.F ^FG.G.=F | 
[V:4] C,,G,,G,,C,z4 | 
[V:1] z8 | 
[V:2] fe.e.d dc.c.=B | 
[V:3] FE.E.D DC.C.=B, | 
[V:4] z2 C,E, C,E,D,F, | 
[V:1] z8 | 
[V:2] cBBf gBAf | 
[V:3] CB,B,F GB,A,F | 
[V:4] D,F,D,F, E,G,F,A, | 
[V:1] c'bbf' g'baf' | 
[V:2] DFDF EGFA | 
[V:3] z8 | 
[V:4] z8 | 
[V:1] z4^f'g'=f'e' | 
[V:2] Gd z d Ec z c | 
[V:3] G,D z D E,C z C | 
[V:4] z2 B,,2 z2 C,2 | 
[V:1] _d'c'bf' g'b_af' | 
[V:2] z2 _DF CEF_A | 
[V:3] z8 | 
[V:4] z8 | 
[V:1] z8 | 
[V:2] _dcBf gB_Af | 
[V:3] _DCB,F GB,_A,F | 
[V:4] z2 _D,,F,, C,,E,,F,,_A,, | 
[V:1] z2 g_d' z2 fc' | 
[V:2] G_d z d Ec z c | 
[V:3] G,_D z D E,C z C | 
[V:4] z2 B,,2 z2 C,2 | 
[V:1] f_a z f _Af z f | 
[V:2] z2 F2 z2 _A2 | 
[V:3] z2 _A,2 z2 F2 | 
[V:4] z2 F,_A, z2 _D,F, | 
[V:1] G_d z d Ec z c | 
[V:2] z2 G2 z2 E2 | 
[V:3] z2 F2 z2 B,2 | 
[V:4] z2 B,,_D, z2 C,,C, | 
[V:1] cC_A,F GECG | 
[V:2] F2 .C2.C2.C2 | 
[V:3] ._A,2.A,2 .B,2.B,2 | 
[V:4] F,,4C,2=D,E, | 
[V:1] _AFCA BGEB | 
[V:2] .C2.C2 .E2.E2 | 
[V:3] ._A,2.A,2 .B,2.B,2 | 
[V:4] .F,2.F,2 .G,2.G,2 | 
[V:1] c_AFc ecGe | 
[V:2] F2F2 B2B2 | 
[V:3] C2C2 C2C2 | 
[V:4] _A,2A,2 G,2G,2 | 
[V:1] fc_Af gecg | 
[V:2] _A2A2 c2c2 | 
[V:3] C2C2 E2E2 | 
[V:4] F,2F,2 C,2C,2 | 
[V:1] _afca c'ge.c' | 
[V:2] c2c2 B2B2 | 
[V:3] F2F2 G2G2 | 
[V:4] _A,,4C,,2D,,E,, | 
[V:1] .c'_afc' _e'bg.e' | 
[V:2] ._A2.A2 G2AB | 
[V:3] F2F2 _E,2F,G, | 
[V:4] F,,2F,,2z4 | 
[V:1] ._e'c'_a.e' .e'_d'b.e' | 
[V:2] .c2.c2 [_E2_d2][E2d2] | 
[V:3] ._A,2.A,2 G,2A,B, | 
[V:4] z4_E,,2F,,G,, | 
[V:1] ._e'c'_a.e' .=d'c'=a.d' | 
[V:2] [_E2c2][E2c2] ^F2G=A | 
[V:3] C2C2 D,2E,^F, | 
[V:4] _A,,2A,,2 D,,2E,,^F,, | 
[V:1] .d'=bg.f' f'd'd'f' | 
[V:2] [D8=B8] | 
[V:3] G,4-G,2=B,D | 
[V:4] G,,2=B,,D, G,2 z2 | 
[V:1] f'd'd'f' f'd'gg' | 
[V:2] G2=B2 d2f2 | 
[V:3] G4z4 | 
[V:4] z8 | 
[V:1] g'e'e'c' c'ggb | 
[V:2] [c8e8]- | 
[V:3] C,4-C,2E,G, | 
[V:4] C,,2E,,G,,C,4 | 
[V:1] bggb bgcc' | 
[V:2] [c4e4]z4 | 
[V:3] C4z4 | 
[V:4] [K:clef=tenor]C2E2 G2B2 | 
[V:1] c'ccc' c'ccc' | 
[V:2] z2 A,2 z2 B,2 | 
[V:3] z2 F,2 z2 G,2 | 
[V:4] A4E4 | 
[V:1] c'ccc' c'ccc' | 
[V:2] z2 C2 z2 _E2 | 
[V:3] z2 A,2 z2 A,2 | 
[V:4] F4^F4 | 
[V:1] c'ccc' c'ccc' | 
[V:2] z2 E2 z2 ^F2 | 
[V:3] z2 B,2 z2 A,2 | 
[V:4] G4A4 | 
[V:1] c'ccc' c'ccc' | 
[V:2] z2 G2 z2 G2 | 
[V:3] z2 G,2 z2 =F,2 | 
[V:4] B8 | 
[V:1] c'ccc' c'ccc' | 
[V:2] z2 G2 z2 A2 | 
[V:3] z2 E,2 z2 D,2 | 
[V:4] B4c4 | 
[V:1] c'ccc' c'ccc' | 
[V:2] z2 B2 z2 G,2 | 
[V:3] z2 C,2 z2 B,2 | 
[V:4] d4E4 | 
[V:1] c'ccc' c'ccc' | 
[V:2] z2 C2 z2 E2 | 
[V:3] z2 A,2 z2 G,2 | 
[V:4] F4G4 | 
[V:1] c'ccc' bccb | 
[V:2] z2 F2 z2 E2 | 
[V:3] z2 F,2 z2 C,2 | 
[V:4] A4G4 | 
[V:1] _a4e4 | 
[V:2] _A4E4 | 
[V:3] [C,2C2][C,4C4][C,2C2]- | 
[V:4] z8 | 
[V:1] f4g4 | 
[V:2] F4G4 | 
[V:3] [C,2C2][C,4C4][C,2C2]- | 
[V:4] [K:clef=bass]_A,,4_E,,4 | 
[V:1] _a4=a4 | 
[V:2] _A4=A4 | 
[V:3] [C,2C2][C,4C4][C,2C2]- | 
[V:4] F,,4_G,,4 | 
[V:1] b8 | 
[V:2] B8 | 
[V:3] [C,2C2][C,4C4][C,2C2]- | 
[V:4] G,,4_A,,4 | 
[V:1] b4c'4 | 
[V:2] B4c4 | 
[V:3] [C,2C2][C,4C4][C,2C2]- | 
[V:4] B,,8 | 
[V:1] _d'4e4 | 
[V:2] _d4E4 | 
[V:3] [C,2C2][C,4C4][C,2C2]- | 
[V:4] B,,4C,4 | 
[V:1] f4g4 | 
[V:2] F4G4 | 
[V:3] [C,2C2][C,4C4][C,2C2]- | 
[V:4] _D,4E,,4 | 
[V:1] _a8- | 
[V:2] _A8- | 
[V:3] [C,2C2]C,4_G,2 | 
[V:4] F,,4_E,,4 | 
[V:1] a4e2fg | 
[V:2] A8 | 
[V:3] F,8- | 
[V:4] _D,,8- | 
[V:1] ._a2.a2 .g2.g2 | 
[V:2] =B,8- | 
[V:3] F,4E,2F,G, | 
[V:4] D,,8- | 
[V:1] .f2.f2 e2fg | 
[V:2] B,8 | 
[V:3] ._A,2.A,2 .G,2.G,2 | 
[V:4] D,,8 | 
[V:1] a8 | 
[V:2] [C8A8] | 
[V:3] F,8 | 
[V:4] .C,,.D,,.E,,.F,, .G,,.A,,.B,,.C, | 
[V:1] [B,8D8] | 
[V:2] .D.E.F.G .A.B.c.d | 
[V:3] F,8 | 
[V:4] B,,8 | 
[V:1] .E.F.G.A .B.c.de | 
[V:2] bagf edcB | 
[V:3] .C,.D,.E,.F, .G,.A,.B,.C | 
[V:4] G,,8 | 
[V:1] fgab c'd'e'f' | 
[V:2] ABcd efga | 
[V:3] AGFE DCB,A, | 
[V:4] F,E,D,C, B,,A,,G,,F,, | 
[V:1] d'2 z2 [B2f2d'2] z2 | 
[V:2] b2 z2 [F2d2b2] z2 | 
[V:3] F2 z2 B,2 z2 | 
[V:4] B,,2 z2 B,,2 z2 | 
[V:1] [A2f2c'2] z2 [G2B2e2] z2 | 
[V:2] [F2c2a2] z2 [G2B2] z2 | 
[V:3] C2 z2 [C,2C2] z2 | 
[V:4] C,2 z2 C,,2 z2 | 
[V:1] z8 | 
[V:2] z8 | 
[V:3] z8 | 
[V:4] z4E,,2F,,G,, | 
[V:1] z4d2ef | 
[V:2] z4=B2B2 | 
[V:3] z4F,2E,D, | 
[V:4] _A,,2A,,2 A,,2A,,2 | 
[V:1] .fc'c'2- c'c'c'2- | 
[V:2] caa2- aaa2- | 
[V:3] C,2>.C2 C3.F | 
[V:4] A,,2>.A,2 A,3.C | 
[V:1] c'c'c'2- c'c'c'c' | 
[V:2] aaa2- aaaa | 
[V:3] F2>.A2 AF.C.A, | 
[V:4] C2>.F2 FC.A,.F, | 
[V:1] .c'.c'c'2- c'c'c'2- | 
[V:2] .e.bb2- bbb2- | 
[V:3] B,2>E2 E3G | 
[V:4] G,2>.B,2 B,3.E | 
[V:1] c'c'c'2- c'c'c'c' | 
[V:2] bbb2- bbbb | 
[V:3] G2>B2 BG.E.B, | 
[V:4] E2>G2 GE.B,.G, | 
[V:1] c'2>.f'2 f'3a' | 
[V:2] a2>.c'2 c'3f' | 
[V:3] .C.AA2- AAA2- | 
[V:4] F,FF2- FFF2- | 
[V:1] a'2>c''2 c''a'.f'.c' | 
[V:2] f'2>a'2 a'f'.c'.a | 
[V:3] A.AA2- A.AAA | 
[V:4] FFF2- F.FFF | 
[V:1] b2>.e'2 e'3.g' | 
[V:2] g2>b2 b3e' | 
[V:3] BG2<G2 GG2- | 
[V:4] GCC2- CCC2- | 
[V:1] g'2>b'2 b'g'.e'.b | 
[V:2] e'2>g'2 g'e'bg | 
[V:3] GGG2- GGGG | 
[V:4] CCC2- CCCC | 
[V:1] a2>.e'2 f'3.^f' | 
[V:2] f2>.g2 a3.a | 
[V:3] .A.AG2- GAc2- | 
[V:4] FFC2- CFD2- | 
[V:1] g'2>^f'2 g'3e' | 
[V:2] b2>.a2 b3g | 
[V:3] cBc2- cBB2 | 
[V:4] DGD2- DGC2 | 
[V:1] a'2>g'2 a'3a' | 
[V:2] f2>e2 f3_g | 
[V:3] AA,B,2- B,A,C2- | 
[V:4] FF,C,2- C,F,D,2- | 
[V:1] b'2>a'2 b'3g' | 
[V:2] g2>^f2 g3e | 
[V:3] CB,C2- CB,B,2- | 
[V:4] D,G,D,2- D,G,C,2- | 
[V:1] a'2>c''2 f'3a' | 
[V:2] a2>c'2 =f3a | 
[V:3] B,A,G,2- G,F,E,2- | 
[V:4] C,F,E,2- E,D,C,2- | 
[V:1] d'2>g'2 f'3e' | 
[V:2] d2>g2 f3e | 
[V:3] E,D,B,2- B,A,G,2- | 
[V:4] C,B,,G,,2- G,,C,C,,2- | 
[V:1] a'2<c''2 f'a'3 | 
[V:2] a2<c'2 fa3 | 
[V:3] G,A,2G,2F,2E,- | 
[V:4] C,,F,,2E,,2D,,2C,,- | 
[V:1] d'2<g'2 f'e'3 | 
[V:2] d2<g2 fe3 | 
[V:3] E,D,2G,- G,C2C, | 
[V:4] C,,B,,2G,,- G,,C,2C,, | 
[V:1] f'FF2- F=BB2- | 
[V:2] [F2=B2]>[F2B2] [F3B3][FB] | 
[V:3] [G,2F2]>[G,2F2] [G,3F3][G,F] | 
[V:4] D,,2>D,,2 D,,3D,, | 
[V:1] Bff=b bf'f'f' | 
[V:2] [F=B][FB][FB][FB] [FB][FB][FB][FB] | 
[V:3] [G,F][G,F][G,F][G,F] [G,F][G,F][G,F][G,F] | 
[V:4] D,,D,,D,,D,, D,,D,,D,,D,, | 
[V:1] !fermata!f'8 | 
[V:2] !fermata![F8=B8] | 
[V:3] !fermata!G,8 | 
[V:4] !fermata!D,,8 | 
[V:1] BB,B,2- B,EE2- | 
[V:2] [G2e2]>[G2e2] [G3e3][Ge] | 
[V:3] [C,2B,2]>[C,2B,2] [C,3B,3][C,B,] | 
[V:4] C,,2>C,,2 C,,3C,, | 
[V:1] EBBe ebbb | 
[V:2] [Ge][Ge][Ge][Ge] [Ge][Ge][Ge][Ge] | 
[V:3] [C,B,][C,B,][C,B,][C,B,] [C,B,][C,B,][C,B,][C,B,] | 
[V:4] C,,C,,C,,C,, C,,C,,C,,C,, | 
[V:1] !fermata!b2 {/g2e2c2B2G2E2C2} !fermata!B,2z4 | 
[V:2] !fermata![G4e4]c2dA | 
[V:3] !fermata![C,4B,4]z4 | 
[V:4] !fermata!C,,4z4 | 
[V:1] z8 | 
[V:2] .B2.G2 ._G2.D2 | 
[V:3] z8 | 
[V:4] z8 | 
[V:1] z4c'2d'a | 
[V:2] G2B2 D2E^F | 
[V:3] z8 | 
[V:4] z8 | 
[V:1] .b2.g2 .^f2.d2 | 
[V:2] .G2.G2 .A2.A2 | 
[V:3] z8 | 
[V:4] z8 | 
[V:1] g2b2 d2e^f | 
[V:2] B4z4 | 
[V:3] z4C2DA, | 
[V:4] z8 | 
[V:1] .g2.g2 .a2.a2 | 
[V:2] z8 | 
[V:3] B,2G,2 _G,2D,2 | 
[V:4] z8 | 
[V:1] b4z4 | 
[V:2] z8 | 
[V:3] G,2B,2 C,2D,E, | 
[V:4] z4B,,2C,G,, | 
[V:1] z8 | 
[V:2] z8 | 
[V:3] .F,2.F,2 .G,2.G,2 | 
[V:4] .A,,2.F,,2 .E,,2.C,,2 | 
[V:1] z8 | 
[V:2] z4B2cG | 
[V:3] A,4z4 | 
[V:4] F,,2A,,2 C,,2D,,E,, | 
[V:1] z8 | 
[V:2] ._A2.F2 .E2.C2 | 
[V:3] z4C,2D,E, | 
[V:4] .F,,2.F,,2 .G,,2.G,,2 | 
[V:1] z4c2de | 
[V:2] F2_A2z4 | 
[V:3] .F,2.F,2 .G,2.G,2 | 
[V:4] _A,,4B,,2C,G,, | 
[V:1] .f2.f2 .g2.g2 | 
[V:2] z4_D2_EB, | 
[V:3] .C2._A,2 .B,2_E,2- | 
[V:4] ._A,,2.F,,2 ._E,,2.E,,2 | 
[V:1] _a2a2 =a2a2 | 
[V:2] C2_A,2 _E2FC | 
[V:3] E,4F,4- | 
[V:4] _A,,2A,,2 F,,2F,,2 | 
[V:1] b2b2 =b2b2 | 
[V:2] _D2B,2 .G2.[=B2g2] | 
[V:3] F,4F,2G,D, | 
[V:4] B,,2B,,2 F,,2G,,D,, | 
[V:1] c'4-c'2d'a | 
[V:2] .[c2g2]c2- c2dA | 
[V:3] E,2A,E, F,2^F,2 | 
[V:4] E,,2C,,6- | 
[V:1] b4-b2c'g | 
[V:2] B4-B2cG | 
[V:3] F,2G,D, _E,2=E,2- | 
[V:4] C,,8- | 
[V:1] a4-a2bf | 
[V:2] A4B4- | 
[V:3] E,2F,^C,D,4 | 
[V:4] C,,8- | 
[V:1] a2g4f2- | 
[V:2] B2B2 A2A2 | 
[V:3] E,4F,4 | 
[V:4] C,,2C,2 z2 C,2 | 
[V:1] f2e4d2 | 
[V:2] G2G2 F2F2 | 
[V:3] G,4A,4 | 
[V:4] z2 C,2 z2 C,2 | 
[V:1] cGA^F GBcA | 
[V:2] E2 z2z4 | 
[V:3] .B,2z.[E,G,] .[E,2G,2]z.[E,G,] | 
[V:4] .C,2z.C, .C,2z.C, | 
[V:1] Befd e^fgB | 
[V:2] z8 | 
[V:3] .[E,2G,2]z.[E,G,] .[E,2G,2]z.[E,G,] | 
[V:4] .C,2z.C, .C,2z.C, | 
[V:1] AABG Acd=B | 
[V:2] z8 | 
[V:3] .[F,2A,2]z.[F,A,] .[F,2A,2]z.[F,A,] | 
[V:4] .C,2z.C, .C,2z.C, | 
[V:1] cfge f^gac | 
[V:2] z8 | 
[V:3] .[F,2A,2]z.[F,A,] .[F,2A,2]z.[F,A,] | 
[V:4] .C,2z.C, .C,2z.C, | 
[V:1] BBcA Bef^d | 
[V:2] z GA^F GGAF | 
[V:3] B,2zB, B,2zB, | 
[V:4] [C,2G,2]z[C,G,] [C,2G,2]z[C,G,] | 
[V:1] ega^f gabB | 
[V:2] Gef^d efgG | 
[V:3] B,2zB, B,2zB, | 
[V:4] [C,2G,2]z[C,G,] [C,2G,2]z[C,G,] | 
[V:1] Afge fabg | 
[V:2] FABG Afge | 
[V:3] C2zC C2zC | 
[V:4] [C,2A,2]z[C,A,] [C,2A,2]z[C,A,] | 
[V:1] ac'd'=b c'.d'.e'.f' | 
[V:2] fab^g a.b.=g.a | 
[V:3] C2zC C2zC | 
[V:4] [C,2A,2]z[C,A,] [C,2A,2]z[C,A,] | 
[V:1] g8- | 
[V:2] e8- | 
[V:3] C,4z E,F,D, | 
[V:4] .C,,C,D,=B,, C, z z2 | 
[V:1] g8 | 
[V:2] e8 | 
[V:3] E,4z B,CA, | 
[V:4] z G,A,^F, G, z z2 | 
[V:1] e'8- | 
[V:2] g8- | 
[V:3] B,8- | 
[V:4] C,8- | 
[V:1] e'8 | 
[V:2] g8 | 
[V:3] B,8 | 
[V:4] C,8 | 
[V:1] f'4d'4 | 
[V:2] f4d4 | 
[V:3] A,2B,C D2EF | 
[V:4] F,,2G,,A,, B,,2C,D, | 
[V:1] c'4a4 | 
[V:2] c4A4 | 
[V:3] C,2D,E, F,2G,A, | 
[V:4] E,2F,G, A,2B,C | 
[V:1] g4e2fg | 
[V:2] G4G4- | 
[V:3] B,4[C,4B,4]- | 
[V:4] _D4C4- | 
[V:1] f2ed c2de | 
[V:2] G8 | 
[V:3] [C,8B,8] | 
[V:4] C8 | 
[V:1] fFGA B2cd | 
[V:2] F2 G,A, B,2CD | 
[V:3] A,4F,4 | 
[V:4] F,4D,4 | 
[V:1] e2fg a2bc' | 
[V:2] E2FG A2Bc | 
[V:3] C4A,4 | 
[V:4] C,4A,,4 | 
[V:1] _d'4c'4- | 
[V:2] [B4b4][B4g4]- | 
[V:3] G,4E,2F,G, | 
[V:4] G,,4E,,2F,,G,, | 
[V:1] c'8- | 
[V:2] [B8g8] | 
[V:3] F,2E,D, C,2D,E, | 
[V:4] F,,2E,,D,, C,,2D,,E,, | 
[V:1] c'4c'2d'e' | 
[V:2] [A2f2]edc4- | 
[V:3] F,2G,A, B,2A,G, | 
[V:4] F,,2G,,A,, B,,2A,,G,, | 
[V:1] f'2g'a' b'2a'g' | 
[V:2] c8- | 
[V:3] F,2E,D, C,2D,E, | 
[V:4] F,,2E,,D,, C,,2D,,E,, | 
[V:1] f'2e'd'c'4- | 
[V:2] c4c2de | 
[V:3] F,2G,A, B,2A,G, | 
[V:4] F,,2G,,A,, B,,2A,,G,, | 
[V:1] c'6^c'2 | 
[V:2] f2ed .c2.^c2 | 
[V:3] F,2G,A, .B,2.A,2 | 
[V:4] F,,2G,,A,, .B,,2.A,,2 | 
[V:1] d'8 | 
[V:2] d8 | 
[V:3] [B,8F8] | 
[V:4] B,,8 | 
[V:1] d'4c'2d'e' | 
[V:2] b4a2c'g | 
[V:3] F8- | 
[V:4] F,8- | 
[V:1] .f'2.f'2 .g'2.g'2 | 
[V:2] a2f2 d2d2 | 
[V:3] F2AF- F2E2 | 
[V:4] F,2FD =B,2_B,2 | 
[V:1] a'4c''2.c''.b' | 
[V:2] ^c4z2 d2 | 
[V:3] E4E4 | 
[V:4] A,4G,4 | 
[V:1] a'4c''3b' | 
[V:2] ^c4=c4- | 
[V:3] E4E4 | 
[V:4] A,4G,4 | 
[V:1] a'4g'4 | 
[V:2] c4c'3b | 
[V:3] F4E4 | 
[V:4] F,4C,4 | 
[V:1] a'4g4 | 
[V:2] a4E4 | 
[V:3] F4C3B, | 
[V:4] F,4C,4 | 
[V:1] a4G4 | 
[V:2] F4E4 | 
[V:3] A,4C4 | 
[V:4] F,,4C,3B,, | 
[V:1] A2-A z G2-G z | 
[V:2] F2-F z E2-E z | 
[V:3] C2-C z B,2-B, z | 
[V:4] A,,2-A,, z C,2-C, z | 
[V:1] F2-F z G2-G z | 
[V:2] C2-C z [B,2E2-][B,E] z | 
[V:3] A,2-A, z C2-C z | 
[V:4] F,2-F, z E,2-E, z | 
[V:1] F2cc c2ff | 
[V:2] A,2AA A2cc | 
[V:3] F,2FF F2A,A, | 
[V:4] F,,2A,,G,, F,,2A,,G,, | 
[V:1] f2aa a2c'c' | 
[V:2] c2ff f2aa | 
[V:3] A,2CC C2FF | 
[V:4] F,,2A,,G,, F,,2A,,G,, | 
[V:1] c'2f'f' f'2a'a' | 
[V:2] a2c'c' c'2f'f' | 
[V:3] F2AA A2cc | 
[V:4] F,,2A,,G,, F,,2A,,G,, | 
[V:1] a'2c''c'' c''2c''c'' | 
[V:2] f'2a'a' a'2a'a' | 
[V:3] c2ff f2ff | 
[V:4] F,,2A,,G,, F,,2A,,G,, | 
[V:1] f'2 z2 [E2c2g2] z2 | 
[V:2] a'2 z2 [G2B2e2] z2 | 
[V:3] f2 z2 C2 z2 | 
[V:4] F,,2 z2 C,2 z2 | 
[V:1] [F2c2a2] z2 [G2B2e2] z2 | 
[V:2] [F2A2f2] z2 [G,2E2] z2 | 
[V:3] F2 z2 [C,2C2] z2 | 
[V:4] F,2 z2 E,2 z2 | 
[V:1] [F4A4f4]z3 [ca] | 
[V:2] [A,4F4]z3 [Af] | 
[V:3] F,4z3 [CF] | 
[V:4] F,,4z3 F, | 
[V:1] [c4a4]z3 [A,F] | 
[V:2] [A4f4]z3 [CF] | 
[V:3] [C4F4]z3 F, | 
[V:4] F,4z3 F,, | 
[V:1] [A,4F4]z4 |]  
[V:2] [C4F4]z4 |]  
[V:3] F,4z4 |]  
[V:4] F,,4z4 |]  


